.local/share/icons/Gruvbox-Plus-Dark/mimetypes/scalable/application-x.allegorithmic.substance.svg

<svg width="256" height="256" fill="none" version="1.1" viewBox="0 0 256 256" xmlns="http://www.w3.org/2000/svg">
  <path d="m102.8 17.85h-44.32c-8.91 0-16.08 7.173-16.08 16.08v193c0 8.911 7.173 16.08 16.08 16.08h144.8c8.911 0 16.08-7.173 16.08-16.08v-0.044-193c0-8.91-7.173-16.08-16.08-16.08h-100.5z" clip-rule="evenodd" fill="url(#paint0_linear)" fill-rule="evenodd"/>
  <path d="m128 38-53.33 31.11v24.44l78.16 23.45-24.82 14.33-31.11-17.78v-4.445l-22.22-6.667v24.44l53.33 31.11 53.33-31.11v-24.44l-78.16-23.44 24.82-14.33 31.11 17.78v4.444l22.22 6.667v-24.44l-53.33-31.11z" fill="#ebdbb2" opacity=".6"/>
  <path d="m128.1 135.9h-3.522v105.6h3.522v-105.6z" fill="#928374"/>
  <path d="m131.6 241.5h-3.521v-105.6h3.521v105.6z" fill="#ebdbb2"/>
  <path d="m121 141.2v7.042h7.043v-3.521h7.042v-3.521h-14.08zm7.043 7.042v3.521h-7.043v7.042h7.043v-3.521h7.042v-7.042h-7.042zm0 10.56v3.521h-7.043v7.043h7.043v-3.521h7.042v-7.043h-7.042zm0 10.56v3.521h-7.043v7.042h7.043v-3.521h7.042v-7.042h-7.042zm0 10.56v3.521h-7.043v7.042h7.043v-3.521h7.042v-7.042h-7.042zm0 10.56v3.522h-7.043v7.042h7.043v-3.521h7.042v-7.043h-7.042zm0 10.56v3.521h-7.043v7.042h7.043v-3.521h7.042v-7.042h-7.042zm0 10.56v3.521h-7.043v7.043h7.043v-3.521h7.042v-7.043h-7.042zm0 10.56v3.521h-7.043v7.042h7.043v-3.521h7.042v-7.042h-7.042zm0 10.56v3.521h-7.043v7.042h7.043v-3.521h7.042v-7.042h-7.042z" fill="url(#paint1_linear)"/>
  <path d="m128.1 142.9v1.761h7.042v-1.761h-7.042zm-7.043 3.521v1.761h7.043v-1.761h-7.043zm7.043 7.043v1.76h7.042v-1.76h-7.042zm-7.043 3.521v1.76h7.043v-1.76h-7.043zm7.043 7.042v1.761h7.042v-1.761h-7.042zm-7.043 3.521v1.761h7.043v-1.761h-7.043zm7.043 7.042v1.761h7.042v-1.761h-7.042zm-7.043 3.522v1.76h7.043v-1.76h-7.043zm7.043 7.042v1.76h7.042v-1.76h-7.042zm-7.043 3.521v1.76h7.043v-1.76h-7.043zm7.043 7.042v1.761h7.042v-1.761h-7.042zm-7.043 3.521v1.761h7.043v-1.761h-7.043zm7.043 7.043v1.76h7.042v-1.76h-7.042zm-7.043 3.521v1.76h7.043v-1.76h-7.043zm7.043 7.042v1.76h7.042v-1.76h-7.042zm-7.043 3.521v1.761h7.043v-1.761h-7.043zm7.043 7.042v1.761h7.042v-1.761h-7.042zm-7.043 3.521v1.761h7.043v-1.761h-7.043zm7.043 7.043v1.76h7.042v-1.76h-7.042zm-7.043 3.521v1.76h7.043v-1.76h-7.043z" fill="#282828" opacity=".4"/>
  <path d="m121 125.3c-3.901 0-7.042 3.14-7.042 7.042v17.61c0 3.901 3.141 7.042 7.042 7.042v14.08c0 1.951 1.571 3.521 3.521 3.521h7.043c1.95 0 3.521-1.57 3.521-3.521v-14.08c3.901 0 7.042-3.141 7.042-7.042v-17.61c0-3.902-3.141-7.042-7.042-7.042h-14.08zm3.521 38.73h7.043v7.042h-7.043v-7.042z" fill="#282828" opacity=".1"/>
  <path d="m124.6 135.9c-1.95 0-3.521 1.57-3.521 3.521v28.17c0 1.951 1.571 3.521 3.521 3.521h7.043c1.95 0 3.521-1.57 3.521-3.521v-28.17c0-1.951-1.571-3.521-3.521-3.521h-7.043zm0 24.65h7.043v7.042h-7.043v-7.042z" fill="url(#paint2_linear)"/>
  <path d="m135.1 121.8h-14.08c-3.889 0-7.042 3.152-7.042 7.042v17.6c0 3.89 3.153 7.043 7.042 7.043h14.08c3.889 0 7.042-3.153 7.042-7.043v-17.6c0-3.89-3.153-7.042-7.042-7.042z" fill="#3c3836"/>
  <path d="m135.1 118.3h-14.08c-3.889 0-7.042 3.153-7.042 7.043v17.6c0 3.89 3.153 7.043 7.042 7.043h14.08c3.889 0 7.042-3.153 7.042-7.043v-17.6c0-3.89-3.153-7.043-7.042-7.043z" fill="#665c54"/>
  <path d="m124.6 128.9c-1.95 0-3.521 1.57-3.521 3.521v31.69c0 1.951 1.571 3.521 3.521 3.521h7.043c1.95 0 3.521-1.57 3.521-3.521v-31.69c0-1.951-1.571-3.521-3.521-3.521h-7.043zm0 28.17h7.043v7.042h-7.043v-7.042z" fill="#ebdbb2"/>
  <path d="m131.6 135.9c0 1.945-1.577 3.521-3.521 3.521-1.945 0-3.522-1.576-3.522-3.521v-10.56c0-1.945 1.577-3.522 3.522-3.522 1.944 0 3.521 1.577 3.521 3.522v10.56z" fill="#665c54"/>
  <path d="m131.6 132.4c0 1.945-1.577 3.521-3.521 3.521-1.945 0-3.522-1.576-3.522-3.521v-7.042c0-1.945 1.577-3.521 3.522-3.521 1.944 0 3.521 1.576 3.521 3.521v7.042z" fill="#a89984"/>
  <path d="m55.33 175.2h52v32h-52v-32z" fill="#ebdbb2"/>
  <path d="m59.34 183.2v16h7.998v-16h-7.998zm12 0v16h3.999v-16h-3.999zm7.998 0v16h8.001v-16h-8.001zm12 0v16h4.003v-16h-4.003zm8.001 0v16h3.999v-16h-3.999z" fill="#665c54"/>
  <path d="m151.3 179.2v3.999h48v-3.999h-48zm0 7.997v4.003h40v-4.003h-40zm0 8.002v3.999h48v-3.999h-48zm0 8.001v3.999h32v-3.999h-32z" fill="#ebdbb2" opacity=".3"/>
  <defs>
    <linearGradient id="paint0_linear" x1="130.9" x2="130.9" y1="17.85" y2="243" gradientUnits="userSpaceOnUse">
      <stop stop-color="#8ec07c" offset=".02174"/>
      <stop stop-color="#427b58" offset="1"/>
    </linearGradient>
    <linearGradient id="paint1_linear" x1="139.7" x2="121" y1="220.9" y2="167.6" gradientUnits="userSpaceOnUse">
      <stop stop-color="#ebdbb2" offset="0"/>
      <stop stop-color="#ebdbb2" offset="1"/>
    </linearGradient>
    <linearGradient id="paint2_linear" x1="121" x2="135.1" y1="153.5" y2="153.5" gradientUnits="userSpaceOnUse">
      <stop stop-color="#a89984" offset="0"/>
      <stop stop-color="#ebdbb2" offset=".08333"/>
      <stop stop-color="#a89984" offset=".1667"/>
      <stop stop-color="#a89984" offset=".8333"/>
      <stop stop-color="#ebdbb2" offset=".9167"/>
      <stop stop-color="#a89984" offset="1"/>
    </linearGradient>
  </defs>
</svg>

<svg width="256" height="256" viewBox="0 0 256 256" fill="none" xmlns="http://www.w3.org/2000/svg">
<g clip-path="url(#clip0)">
<g opacity="0.4" filter="url(#filter0_f)">
<path fill-rule="evenodd" clip-rule="evenodd" d="M102.816 18.4131H58.497H58.4969C49.5865 18.4131 42.4131 25.5865 42.4131 34.497V227.503C42.4131 236.413 49.5865 243.587 58.4969 243.587H58.5858H203.252H203.34C212.251 243.587 219.424 236.413 219.424 227.503L219.424 227.459L219.424 34.497C219.424 25.5865 212.251 18.4131 203.34 18.4131H159.021H102.816Z" fill="#282828"/>
</g>
<path fill-rule="evenodd" clip-rule="evenodd" d="M102.816 17.8495H58.497H58.4969C49.5865 17.8495 42.4131 25.0229 42.4131 33.9333V226.939C42.4131 235.85 49.5865 243.023 58.4969 243.023H58.5858H203.252H203.34C212.251 243.023 219.424 235.85 219.424 226.939L219.424 226.895L219.424 33.9333C219.424 25.0229 212.251 17.8495 203.34 17.8495H159.021H102.816Z" fill="url(#paint0_linear)"/>
<path opacity="0.6" d="M128 38L74.6667 69.1111V93.5556L152.822 117.004L128 131.333L96.8889 113.556V109.111L74.6667 102.444V126.889L128 158L181.333 126.889V102.444L103.178 79L128 64.6667L159.111 82.4444V86.8889L181.333 93.5556V69.1111L128 38Z" fill="#ebdbb2"/>
<path d="M128.085 135.902H124.563V241.536H128.085V135.902Z" fill="#928374"/>
<path d="M131.606 241.536H128.085V135.902H131.606V241.536Z" fill="#ebdbb2"/>
<path d="M121.042 141.184V148.226H128.085V144.705H135.127V141.184H128.085H121.042ZM128.085 148.226V151.747H121.042V158.789H128.085V155.268H135.127V148.226H128.085ZM128.085 158.789V162.31H121.042V169.353H128.085V165.832H135.127V158.789H128.085ZM128.085 169.353V172.874H121.042V179.916H128.085V176.395H135.127V172.874V169.353H128.085ZM128.085 179.916V183.437H121.042V190.479H128.085V186.958H135.127V179.916H128.085ZM128.085 190.479V194.001H121.042V201.043H128.085V197.522H135.127V190.479H128.085ZM128.085 201.043V204.564H121.042V211.606H128.085V208.085H135.127V204.564V201.043H128.085ZM128.085 211.606V215.127H121.042V222.17H128.085V218.649H135.127V211.606H128.085ZM128.085 222.17V225.691H121.042V232.733H128.085V229.212H135.127V222.17H128.085ZM128.085 232.733V236.254H121.042V243.296H128.085V239.775H135.127V236.254V232.733H128.085Z" fill="url(#paint1_linear)"/>
<path opacity="0.4" d="M128.085 142.944V144.705H135.127V142.944H128.085ZM121.042 146.465V148.226H128.085V146.465H121.042ZM128.085 153.508V155.268H135.127V153.508H128.085ZM121.042 157.029V158.789H128.085V157.029H121.042ZM128.085 164.071V165.832H135.127V164.071H128.085ZM121.042 167.592V169.353H128.085V167.592H121.042ZM128.085 174.634V176.395H135.127V174.634H128.085ZM121.042 178.156V179.916H128.085V178.156H121.042ZM128.085 185.198V186.958H135.127V185.198H128.085ZM121.042 188.719V190.479H128.085V188.719H121.042ZM128.085 195.761V197.522H135.127V195.761H128.085ZM121.042 199.282V201.043H128.085V199.282H121.042ZM128.085 206.325V208.085H135.127V206.325H128.085ZM121.042 209.846V211.606H128.085V209.846H121.042ZM128.085 216.888V218.648H135.127V216.888H128.085ZM121.042 220.409V222.17H128.085V220.409H121.042ZM128.085 227.451V229.212H135.127V227.451H128.085ZM121.042 230.972V232.733H128.085V230.972H121.042ZM128.085 238.015V239.775H135.127V238.015H128.085ZM121.042 241.536V243.296H128.085V241.536H121.042Z" fill="#282828"/>
<path opacity="0.1" d="M121.042 125.339C117.141 125.339 114 128.479 114 132.381V149.987C114 153.888 117.141 157.029 121.042 157.029V171.113C121.042 173.064 122.613 174.634 124.563 174.634H131.606C133.556 174.634 135.127 173.064 135.127 171.113V157.029C139.028 157.029 142.169 153.888 142.169 149.987V132.381C142.169 128.479 139.028 125.339 135.127 125.339H121.042ZM124.563 164.071H131.606V171.113H124.563V164.071Z" fill="#282828"/>
<path d="M124.563 135.902C122.613 135.902 121.042 137.472 121.042 139.423V167.592C121.042 169.543 122.613 171.113 124.563 171.113H131.606C133.556 171.113 135.127 169.543 135.127 167.592V139.423C135.127 137.472 133.556 135.902 131.606 135.902H124.563ZM124.563 160.55H131.606V167.592H124.563V160.55Z" fill="url(#paint2_linear)"/>
<path d="M135.127 121.818H121.042C117.153 121.818 114 124.97 114 128.86V146.465C114 150.355 117.153 153.508 121.042 153.508H135.127C139.016 153.508 142.169 150.355 142.169 146.465V128.86C142.169 124.97 139.016 121.818 135.127 121.818Z" fill="#3c3836"/>
<path d="M135.127 118.296H121.042C117.153 118.296 114 121.449 114 125.339V142.944C114 146.834 117.153 149.987 121.042 149.987H135.127C139.016 149.987 142.169 146.834 142.169 142.944V125.339C142.169 121.449 139.016 118.296 135.127 118.296Z" fill="#665c54"/>
<path d="M124.563 128.86C122.613 128.86 121.042 130.43 121.042 132.381V164.071C121.042 166.022 122.613 167.592 124.563 167.592H131.606C133.556 167.592 135.127 166.022 135.127 164.071V132.381C135.127 130.43 133.556 128.86 131.606 128.86H124.563ZM124.563 157.029H131.606V164.071H124.563V157.029Z" fill="#ebdbb2"/>
<path d="M131.606 135.902C131.606 137.847 130.029 139.423 128.085 139.423C126.14 139.423 124.563 137.847 124.563 135.902V125.339C124.563 123.394 126.14 121.817 128.085 121.817C130.029 121.817 131.606 123.394 131.606 125.339V135.902Z" fill="#665c54"/>
<path d="M131.606 132.381C131.606 134.326 130.029 135.902 128.085 135.902C126.14 135.902 124.563 134.326 124.563 132.381V125.339C124.563 123.394 126.14 121.818 128.085 121.818C130.029 121.818 131.606 123.394 131.606 125.339V132.381Z" fill="#a89984"/>
<path d="M55.3326 175.174H107.332V207.176H55.3326V175.174Z" fill="#ebdbb2"/>
<path d="M59.3351 183.176V199.175H67.3326V183.176H59.3351ZM71.3351 183.176V199.175H75.3339V183.176H71.3351ZM79.3327 183.176V199.175H87.334V183.176H79.3327ZM91.3327 183.176V199.175H95.3353V183.176H91.3327ZM99.334 183.176V199.175H103.333V183.176H99.334Z" fill="#665c54"/>
<path opacity="0.3" d="M151.333 179.177V183.176H199.333V179.177H151.333ZM151.333 187.174V191.177H191.336V187.174H151.333ZM151.333 195.176V199.175H199.333V195.176H151.333ZM151.333 203.177V207.176H183.334V203.177H151.333Z" fill="#ebdbb2"/>
</g>
<defs>
<filter id="filter0_f" x="27.2909" y="3.29092" width="207.255" height="255.418" filterUnits="userSpaceOnUse" color-interpolation-filters="sRGB">
<feFlood flood-opacity="0" result="BackgroundImageFix"/>
<feBlend mode="normal" in="SourceGraphic" in2="BackgroundImageFix" result="shape"/>
<feGaussianBlur stdDeviation="7.5611" result="effect1_foregroundBlur"/>
</filter>
<linearGradient id="paint0_linear" x1="130.92" y1="17.8495" x2="130.92" y2="243.027" gradientUnits="userSpaceOnUse">
<stop offset="0.0217391" stop-color="#8ec07c"/>
<stop offset="1" stop-color="#427b58"/>
</linearGradient>
<linearGradient id="paint1_linear" x1="139.68" y1="220.858" x2="121.042" y2="167.592" gradientUnits="userSpaceOnUse">
<stop stop-color="#ebdbb2"/>
<stop offset="1" stop-color="#ebdbb2"/>
</linearGradient>
<linearGradient id="paint2_linear" x1="121.042" y1="153.508" x2="135.127" y2="153.508" gradientUnits="userSpaceOnUse">
<stop stop-color="#a89984"/>
<stop offset="0.083333" stop-color="#ebdbb2"/>
<stop offset="0.16667" stop-color="#a89984"/>
<stop offset="0.83333" stop-color="#a89984"/>
<stop offset="0.91667" stop-color="#ebdbb2"/>
<stop offset="1" stop-color="#a89984"/>
</linearGradient>
<clipPath id="clip0">
<rect width="256" height="256" fill="#ebdbb2"/>
</clipPath>
</defs>
</svg>
